X:91
T:For the lake(?) of Gold she has left me. JMP.091
M:C
L:1/8
Q:1/2=80
S:John Miller MS. Perth, 1799.(for the fife)
R:.Scots Measure
O:Scotland
A:Perth
N:Itâ€™s probably â€˜For the Sake . . . â€ but it looks like â€˜lake . . .â€™ and
N:itâ€™s lovely ideaâ€¦or â€œlackâ€.
N:1 â€“ no key signature give
H:1799
Z:vmp.C .Graebe
K:D major
F>E |â€no Key sig givenâ€ D3 F ABdA | B2e4 dB | d2a2 fdbd | f2 a4 d2 |!
gabg fgaf | (gf)(ed) {f}e2 de/f/ | D3 F ABdA | B2 d>e d2 :|!
|:de | fdec dABF | E2 e4 fa | bafb adbd |f2a4d2 |!
gabg fgaf | gfed {f}e2 de/f/ | D3 F ABdA | B2e4:|

